X: 3315
T: Bellag The Drover
R: jig
M: 6/8
K: Amixolydian
e|a2 f ecA|BcB cAA|AAA cBA|BcA B2 c|
a2 f ecA|BcB cAA|AAA cBc|AAA A2:|
|:c|e e2 efg|agf ecA|AAA cBA|BcA B2 c|
[1e e2 efg|agf ecA|AAA cBc|AAA A2:|
[2efe ecA|BcB cBA|AAA cBc|AAA A2||

